X:1
T:St. Alban (Haydn), 65.65 refrain
T:St. Alban (Haydn), 65.65 refrain
T:Franz Josef Haydn, 1775
T:Public Domain Courtesy of the Cyber Hymnal™
C:Franz Josef Haydn, 1775
Z:Public Domain
Z:Courtesy of the Cyber Hymnal™
%%score ( 1 2 ) ( 3 4 )
L:1/8
Q:1/4=115
M:4/4
K:G
V:1 treble 
V:2 treble 
V:3 bass 
V:4 bass 
V:1
 [GB]2 [GB]2 [FA]2 [FA]2 | [DG]4 D4 | [Dd]2 [Gd]2 [Ge]2 [Ge]2 | [FA]8 | [Ec]2 [Dc]2 [DB]2 [DB]2 | %5
 [EA]4 E4 | [DG]2 [B,G]2 [GA]2 [FA]2 | [DG]8 | [Gd]2 [Gd]2 [Ec]2 [=Fc]2 | B4 E4 | %10
 [Ec]2 [Ec]2 [Ee]2 [Ee]2 | (G4 F4) | [Ec]2 [Ec]2 [DA]2 [DA]2 | [Dd]4 [EB]4 | %14
 [EA]2 [EA]2 [DF]2 [DF]2 | G8 | [DB]2 [DB]2 [DA]2 [DA]2 | G4 D4 | [Dd]2 [Gd]2 [Ge]2 [Ge]2 | [FA]8 | %20
 [Ec]2 [Dc]2 [DB]2 [GB]2 | A4 E4 | [CG]2 [B,G]2 [DA]2 [CA]2 | [B,G]8 |] %24
V:2
 x8 | x4 D4 | x8 | x8 | x8 | x4 E4 | x8 | x8 | x8 | (=F2 D2) x4 | x8 | D8 | x8 | x8 | x8 | %15
 (D4 E4) | x8 | (D2 C2) (B,2 C2) | x8 | x8 | x8 | (C2 E2) (D2 C2) | x8 | x8 |] %24
V:3
 [G,D]2 [G,D]2 [D,C]2 [D,C]2 | [G,B,]4 [G,B,]4 | [B,,G,]2 [G,,B,]2 [C,C]2 [C,A,]2 | [D,A,]8 | %4
 [E,G,]2 [F,A,]2 [G,B,]2 [G,B,]2 | [A,C]4 [A,C]4 | [E,B,]2 [E,^C]2 [D,D]2 [D,=C]2 | [G,B,]8 | %8
 [B,D]2 [G,B,]2 [A,C]2 [D,D]2 | (D2 =F2) (E2 D2) | [A,C]2 [A,C]2 [C,A,]2 (B,A,) | (B,4 A,4) | %12
 [A,,A,]2 [A,,G,]2 [D,F,]2 [C,F,]2 | [B,,G,]4 [E,G,]4 | [C,C]2 [C,C]2 [D,A,]2 [D,A,]2 | (B,4 C4) | %16
 [G,,B,]2 [B,,G,]2 [D,F,]2 [F,C]2 | ([G,B,]2 [A,C]2) ([B,D]2 [A,C]2) | B,2 [G,B,]2 C2 [C,A,]2 | %19
 [D,A,]8 | [E,G,]2 [F,A,]2 [G,B,]2 [G,D]2 | [A,C]4 ([B,,^G,]2 [A,,A,]2) | %22
 [E,G,]2 [E,G,]2 [D,G,]2 [D,F,]2 | [G,,G,]8 |] %24
V:4
 x8 | x8 | x8 | x8 | x8 | x8 | x8 | x8 | x8 | ^G,4 G,4 | x6 C,2 | D,8 | x8 | x8 | x8 | G,8 | x8 | %17
 x8 | x8 | x8 | x8 | x8 | x8 | x8 |] %24

